svg/blobs-icons/no-decorations/settings.svg

<svg xmlns="http://www.w3.org/2000/svg" xmlns:xlink="http://www.w3.org/1999/xlink" preserveAspectRatio="xMidYMid" width="218" height="193" viewBox="0 0 218 193"><defs><style>.cls-3{fill:#142a3b}.cls-4{fill:#020403;opacity:.35}.cls-6{fill:#fbb713}.cls-7{fill:#2476ff}</style></defs><g id="group-109svg"><path d="M52.268 127.532s-35.888.0-35.888.0S-.006 158.665-.006 158.665 16.38 189.796 16.38 189.796s35.888.0 35.888.0 16.383-31.131 16.383-31.131-16.383-31.133-16.383-31.133zM34.41 175.825C24.869 175.825 17.13 168.127 17.13 158.628c0-9.488 7.739-17.198 17.28-17.198C43.95 141.43 51.69 149.14 51.69 158.628 51.69 168.118 43.954 175.825 34.41 175.825z" id="path-1" class="cls-3" fill-rule="evenodd"/><path d="M29.247 174.956C22.245 172.761 17.13 166.323 17.13 158.628 17.13 150.94 22.245 144.498 29.248 142.301 27.608 141.787 25.897 141.43 24.086 141.43 14.546 141.43 6.806 149.14 6.806 158.628 6.806 168.127 14.546 175.825 24.086 175.825c1.811.0 3.521-.353999999999985 5.161-.869z" id="path-2" class="cls-4" fill-rule="evenodd"/><path d="M52.268 127.532s-10.324.0-10.324.0 16.383 31.133 16.383 31.133-16.383 31.131-16.383 31.131 10.324.0 10.324.0 16.383-31.131 16.383-31.131-16.383-31.133-16.383-31.133z" id="path-3" class="cls-4" fill-rule="evenodd"/><path d="M171.923 2.488C174.318.093 188.929-3.768 201.645 8.953L207.077 14.38c15.105 15.104 8.851 27.328 6.459 29.72l-86.085 71.487C137.896 138.31 144.223 156.729 125.67 175.281c-16.074 16.075-38.946 21.193-59.558 15.496l34.931-34.93C103.305 153.586 102.965 149.588 100.298 146.92L66.45 113.075C63.781 110.409 59.789 110.066 57.53 112.327l-4.97 4.967s-30.48.0-30.48.0c2.441-10.794 7.813-21.031 16.194-29.412 18.551-18.553 37.009-12.184 59.728-1.741L171.923 2.488z" id="path-4" class="cls-6" fill-rule="evenodd"/><path d="M189.615 26.417C194.332 31.136 197.068 36.049 189.719 43.403 182.366 50.755 175.016 50.449 170.298 45.732 165.583 41.013 165.277 33.664 172.63 26.313 179.983 18.961 184.896 21.699 189.615 26.417z" id="path-5" class="cls-7" fill-rule="evenodd"/><path d="M189.615 26.417C189.024 25.825 188.431 25.268 187.831 24.757 191.417 28.958 192.71 33.525 186.278 39.963c-6.434 6.43-12.865 7.001-17.533 3.883C169.19 44.513 169.71 45.143 170.298 45.731 175.016 50.45 182.366 50.755 189.719 43.403 197.068 36.049 194.332 31.136 189.615 26.417z" id="path-6" class="cls-4" fill-rule="evenodd"/><path d="M212.357 20.776C215.151 29.362 211.728 35.585 210.094 37.217L124.01 108.705C134.454 131.427 140.783 149.847 122.229 168.398c-13.864 13.864-32.783 19.558-50.95 17.213l-5.167 5.166C86.724 196.474 109.596 191.356 125.67 175.281 144.223 156.729 137.896 138.309 127.451 115.587L213.536 44.1C215.579 42.057 220.393 32.831 212.357 20.776z" id="path-7" class="cls-4" fill-rule="evenodd"/><path d="M99.065 145.688C99.226 143.771 98.478 141.659 96.856 140.037L63.008 106.191C60.34 103.526 56.347 103.184 54.089 105.443l-4.97 4.97s-25.024.0-25.024.0C23.296 112.675 22.606 114.968 22.08 117.294H52.56s4.97-4.967 4.97-4.967C59.789 110.066 63.781 110.409 66.45 113.075l32.615 32.613z" id="path-8" class="cls-4" fill-rule="evenodd"/></g></svg>

<svg xmlns="http://www.w3.org/2000/svg" xmlns:xlink="http://www.w3.org/1999/xlink" preserveAspectRatio="xMidYMid" width="218" height="193" viewBox="0 0 218 193">
  <defs>
    <style>

      .cls-3 {
        fill: #142a3b;
      }

      .cls-4 {
        fill: #020403;
        opacity: 0.35;
      }

      .cls-6 {
        fill: #fbb713;
      }

      .cls-7 {
        fill: #2476ff;
      }
    </style>
  </defs>
  <g id="group-109svg">
    <path d="M52.268,127.532 C52.268,127.532 16.380,127.532 16.380,127.532 C16.380,127.532 -0.006,158.665 -0.006,158.665 C-0.006,158.665 16.380,189.796 16.380,189.796 C16.380,189.796 52.268,189.796 52.268,189.796 C52.268,189.796 68.651,158.665 68.651,158.665 C68.651,158.665 52.268,127.532 52.268,127.532 ZM34.410,175.825 C24.869,175.825 17.130,168.127 17.130,158.628 C17.130,149.140 24.869,141.430 34.410,141.430 C43.950,141.430 51.690,149.140 51.690,158.628 C51.690,168.118 43.954,175.825 34.410,175.825 Z" id="path-1" class="cls-3" fill-rule="evenodd"/>
    <path d="M29.247,174.956 C22.245,172.761 17.130,166.323 17.130,158.628 C17.130,150.940 22.245,144.498 29.248,142.301 C27.608,141.787 25.897,141.430 24.086,141.430 C14.546,141.430 6.806,149.140 6.806,158.628 C6.806,168.127 14.546,175.825 24.086,175.825 C25.897,175.825 27.607,175.471 29.247,174.956 Z" id="path-2" class="cls-4" fill-rule="evenodd"/>
    <path d="M52.268,127.532 C52.268,127.532 41.944,127.532 41.944,127.532 C41.944,127.532 58.327,158.665 58.327,158.665 C58.327,158.665 41.944,189.796 41.944,189.796 C41.944,189.796 52.268,189.796 52.268,189.796 C52.268,189.796 68.651,158.665 68.651,158.665 C68.651,158.665 52.268,127.532 52.268,127.532 Z" id="path-3" class="cls-4" fill-rule="evenodd"/>
    <path d="M171.923,2.488 C174.318,0.093 188.929,-3.768 201.645,8.953 C201.645,8.953 207.077,14.380 207.077,14.380 C222.182,29.484 215.928,41.708 213.536,44.100 C213.536,44.100 127.451,115.587 127.451,115.587 C137.896,138.310 144.223,156.729 125.670,175.281 C109.596,191.356 86.724,196.474 66.112,190.777 C66.112,190.777 101.043,155.847 101.043,155.847 C103.305,153.586 102.965,149.588 100.298,146.920 C100.298,146.920 66.450,113.075 66.450,113.075 C63.781,110.409 59.789,110.066 57.530,112.327 C57.530,112.327 52.560,117.294 52.560,117.294 C52.560,117.294 22.080,117.294 22.080,117.294 C24.521,106.500 29.893,96.263 38.274,87.882 C56.825,69.329 75.283,75.698 98.002,86.141 C98.002,86.141 171.923,2.488 171.923,2.488 Z" id="path-4" class="cls-6" fill-rule="evenodd"/>
    <path d="M189.615,26.417 C194.332,31.136 197.068,36.049 189.719,43.403 C182.366,50.755 175.016,50.449 170.298,45.732 C165.583,41.013 165.277,33.664 172.630,26.313 C179.983,18.961 184.896,21.699 189.615,26.417 Z" id="path-5" class="cls-7" fill-rule="evenodd"/>
    <path d="M189.615,26.417 C189.024,25.825 188.431,25.268 187.831,24.757 C191.417,28.958 192.710,33.525 186.278,39.963 C179.844,46.393 173.413,46.964 168.745,43.846 C169.190,44.513 169.710,45.143 170.298,45.731 C175.016,50.450 182.366,50.755 189.719,43.403 C197.068,36.049 194.332,31.136 189.615,26.417 Z" id="path-6" class="cls-4" fill-rule="evenodd"/>
    <path d="M212.357,20.776 C215.151,29.362 211.728,35.585 210.094,37.217 C210.094,37.217 124.010,108.705 124.010,108.705 C134.454,131.427 140.783,149.847 122.229,168.398 C108.365,182.262 89.446,187.956 71.279,185.611 C71.279,185.611 66.112,190.777 66.112,190.777 C86.724,196.474 109.596,191.356 125.670,175.281 C144.223,156.729 137.896,138.309 127.451,115.587 C127.451,115.587 213.536,44.100 213.536,44.100 C215.579,42.057 220.393,32.831 212.357,20.776 Z" id="path-7" class="cls-4" fill-rule="evenodd"/>
    <path d="M99.065,145.688 C99.226,143.771 98.478,141.659 96.856,140.037 C96.856,140.037 63.008,106.191 63.008,106.191 C60.340,103.526 56.347,103.184 54.089,105.443 C54.089,105.443 49.119,110.413 49.119,110.413 C49.119,110.413 24.095,110.413 24.095,110.413 C23.296,112.675 22.606,114.968 22.080,117.294 C22.080,117.294 52.560,117.294 52.560,117.294 C52.560,117.294 57.530,112.327 57.530,112.327 C59.789,110.066 63.781,110.409 66.450,113.075 C66.450,113.075 99.065,145.688 99.065,145.688 Z" id="path-8" class="cls-4" fill-rule="evenodd"/>
  </g>
</svg>
